!! 00000] TT[00
!!!OTL: Shangqu gaoshan wang pingchuan
!!!ARE: Asia, China,Qinghai
!! Ethnic Group: Han, Hui
!! Zhongguo Minge Xuan, S. 274
!!!SCT: C1151
!!!YEM: Copyright 1995, estate of Helmut Schaffrath.
**kern
*ICvox
*Ivox
*M4/4
*k[b-e-]
*B-:
{4cc
8cc
8cc
16cc
16b-
16.g
32f
4f
=1
16g
16b-
8cc
4cc
4.ff
16ff
16cc}
=2
{16cc
16b-
16cc
16b-
4g
4r
8g
8f
=3
16g
16b-
4.cc
4.cc
8ff
=4
2.ff
4r}
=5
{8.c
16f
8.f
16f
16g
16b-
4.cc
=6
8cc
4cc
8ff
4.ff
16ff
16cc}
=7
{4cc
16cc
16b-
16cc
16b-
8g
8r
8.g
16b-
=8
4.cc
8ff
16cc
16b-
16cc
16b-
4g
=9
4f
2.f}
==
!!!AGN: Shange, Hua'r
!!!ONB: ESAC (Essen Associative Code) Database: CHINA_015
!!!AMT: simple quadruple
!!!AIN: vox
!!!EED: Helmut Schaffrath
!!!EEV: 1.0
*-
